X:8
%%pagewidth 800pt
%%score 1 2
T: Ah! The Sighs that come fro' my heart.
M:C
L:1/8
K:F
V:1 clef=treble
V:2 clef=bass
V:1
F3 G B2 A2 & x4 F4|G d2 d d2 D2 & D6 x2 | [CF]3 [CEG] [CFA]2 [DFB]2|([CFA]3 G/F/ A2) A2|
w: Ah! the syghes that come fro' my heart, They grieve me passing* sore:*** Syth
V:2
A,3 B, D2 C2 & F,4 F,4|[B,,B,]6 [B,,G,]2|[C,A,]3 C, C,2 B,,2|F,,8|
V:1
A3 B [CGc]2 [FAc]2 & [DF]4 x4|(_ed)(cB) A3 A & G4 ^F4|d3 G cFBB & D2 =E2 C2 [DG]2|A/B/c/B/ A/G/A x4 & [FA]4 [EG]4 & C8||
w:I must fro' my love* de* part, Fare-well my joye for e-ver-more.******
V:2
D,4 E,2 F,2|C,4 D,4|[B,,B,]2 [C,G,]2 [A,,F,]2 G,,2|C,8||

